source/presentation/public/images/icons/types/metal.svg

<svg width="1em" height="1em" viewBox="0 0 35 35" fill="none" xmlns="http://www.w3.org/2000/svg">
<circle cx="17.5" cy="17.5" r="17.5" fill="#827D79"/>
<path d="M7.73338 13.6898L9.90838 9.92261L13.7413 9.88386L12.6927 7.20001L8.52501 7.21867L4.70001 13.8438L6.6927 17.5923L9.46626 17.2884L7.73338 13.6898Z" fill="black"/>
<path d="M11.075 12.45H22.925L17.075 22.8L11.075 12.45Z" fill="black"/>
<path d="M14.675 25.95H19.025L21.275 22.65L22.925 24.9L20.675 28.5H13.025L10.925 24.9L12.725 22.65L14.675 25.95Z" fill="black"/>
<path d="M24.2079 9.92261L26.3829 13.6898L24.65 17.2884L27.4236 17.5923L29.4163 13.8438L25.5913 7.21867L21.4236 7.20001L20.375 9.88386L24.2079 9.92261Z" fill="black"/>
</svg>

<svg width="1em" height="1em" viewBox="0 0 35 35" xmlns="http://www.w3.org/2000/svg">
<circle cx="17.5" cy="17.5" r="17.5" fill="#827D79"/>
<path d="m7.7334 13.69 2.175-3.7672 3.8329-0.03875-1.0486-2.6838-4.1677 0.01866-3.825 6.6251 1.9927 3.7485 2.7736-0.3039-1.7329-3.5986z"/>
<path d="m11.075 12.45h11.85l-5.85 10.35-6-10.35z"/>
<path d="m14.675 25.95h4.35l2.25-3.3 1.65 2.25-2.25 3.6h-7.65l-2.1-3.6 1.8-2.25 1.95 3.3z"/>
<path d="m24.208 9.9226 2.175 3.7672-1.7329 3.5986 2.7736 0.3039 1.9927-3.7485-3.825-6.6251-4.1677-0.01866-1.0486 2.6838 3.8329 0.03875z"/>
</svg>
